X:256
T:Reel 256
M:4/4
K:Gmin
L:1/8
B2dB ABd=e|fdcB AFFA|BAG=e fed=e|fdce dGG2|B2BA Bcd=e|fdcB AFFA|G^FGA BAB=e|fdcB AGG2|dggf d=efd|cAfA cAFA|d=ef2 afg=e|fdcA dGG2|dggf d=efd|cAfc AGF2|dg=gf gab=e|fdcA dGG2|
